X: 1153
T: An Buachaillin Dreoite
R: jig
M: 6/8
K: Fmajor
|:CF/F/F GA/G/F|GA/G/F FED|CFF GA/G/F|BGF EF/E/D|
CFF GA/G/F|GA/G/F FG/A/c|ee/e/e fec|1 BGc FED:|2 BGc F2G||
|:AGA BAB|cdc F2G|AGA FAc|BGF EFG|
AGA BAB|cBc def|g2e fec|1 BGc F2G:|2 BGc FED||

